X: 155
T: Yao sanbai
%%abc-version 2.0
%%abcx-abcm2ps-target-version 5.9.1 (29 Sep 2008)
%%abc-creator hum2abc beta
%%abcx-conversion-date 2013/10/02 07:52:29
%%abc-edited-by Helmut Schaffrath
%%humdrum-veritas 3883193971
%%humdrum-veritas-data 2018569596
%%continueall 1
%%barnumbers 0
L: 1/8
M: 3/8
K: G
A B A [I:setbarnb 1]| 
A G/ F/ E | 
A A A/ B/ | 
A3 | 
A G/ F/ E | 
D3 | 
E A G | 
A B/ A/ G | 
[M:2/8]E/ D/ C | 
[M:3/8]D2G | 
E D C/ B,/ | 
A,3 |]  



